X: 37113
T: Simon Thoumire's
R: jig
M: 6/8
K: Gmajor
G2D EDE|GA^A Bde|gfd ege|dBG ABA|
G2D EDE|GA^A Bde|gfd e/f/ge|dBA G2z:|
gfd ezg-|gfd edg|edB BAG|ABG E2D|
G2D EDE|GA^A Bde|gfd e/f/ge|dBA G2z:|

